X:1
T:Title
%%score 1 { 2 | 3 }
L:1/8
Q:1/4=100
M:4/4
K:C
V:1 treble nm="PianoR"
V:2 treble nm="PianoL"
V:3 bass 
V:1
 e8- | e4- e2 e2 | e2 af dcBc | B2 A2 G4 | g8- | ge_BA d^cgf | f8- | fdAG cBfe | e4- e2 ^fg | %9
 c2- cd/e/ eddc | BA A/B/c cBBA | G8 |[M:4/4] e8- | e4- e2 e2 | e2 af dcBc | B2 A2 G4 | g8- | %17
 ge_BA d^cgf | f8- | fdAG cBfe | e4- e2 ^fg | c2- cd/e/ eddc | BA A/B/c cBBA | G8 | z8 |] %25
V:2
[K:A] [=C,,=G,=CE]8 | [A,=CE]8 | [A,=C=F]4 [A,CD^F]4 | [=G,B,D]4- [G,B,D=F]4 | [=G,,=G,_B,D]8 | %5
 [A,,A,^CE=G]8 | [D,,A,D=F]8 | [=G,B,D]4 [G,B,D=F]4 | [=C,,=G,=CE]8 | [A,=CE]4 [A,D=F]4 | %10
 [=G,B,D]2 [G,=CE]2 [G,B,D]2 [A,C=F]2 | [=G,,=G,B,D]8 |[M:4/4] [=C,,=G,=CE]8 | [A,=CE]8 | %14
 [A,=C=F]4 [A,CD^F]4 | [=G,B,D]4- [G,B,D=F]4 | [=G,,=G,_B,D]8 | [A,,A,^CE=G]8 | [D,,A,D=F]8 | %19
 [=G,B,D]4 [G,B,D=F]4 | [=C,,=G,=CE]8 | [A,=CE]4 [A,D=F]4 | [=G,B,D]2 [G,=CE]2 [G,B,D]2 [A,C=F]2 | %23
 [_E,,=G,_A,^D]8 | z8 |] %25
V:3
[K:A] z8 | A,,8 | =F,,4 D,,4 | =G,,8 | z8 | z8 | z8 | =G,,8 | z8 | A,,4 D,,4 | %10
 =G,,2 =C,,2 G,,2 D,,2 | z8 |[M:4/4] z8 | A,,8 | =F,,4 D,,4 | =G,,8 | z8 | z8 | z8 | =G,,8 | z8 | %21
 A,,4 D,,4 | =G,,2 =C,,2 G,,2 D,,2 | x8 | x8 |] %25

